**kern	**kern	**dynam
*part1	*part1	*part1
*staff2	*staff1	*staff1
*IPiano	*IPiano	*IPiano
*clefG2	*clefG2	*clefG2
*k[b-]	*k[b-]	*k[b-]
*M2/4	*M2/4	*M2/4
!Tempo Marking: Dans le style et le Mouvement d'un Cake-Walk	!Tempo Marking: Dans le style et le Mouvement d'un Cake-Walk	!Tempo Marking: Dans le style et le Mouvement d'un Cake-Walk
!Expression: m.d., strident	!	!
32g'LLL	16ryy	.
32g'	.	.
32cc'JJJ	32ryy	.
=1	=1	=1
!Expression: m.g.	!	!
2c~^^	4r	.
.	8r	.
.	8e-' 8g- 8b-X	p
=2	=2	=2
!	!Expression: sec	!
4ryy	8gn'L 8bn 8dd	.
.	8b-X' 8dd- 8ff	.
8ryy	8g' 8bn 8ddn	.
32ryy	8e-'J 8g- 8b-X	.
32gn'LLL	.	.
32g'	.	.
32cc'JJJ	.	.
=3	=3	=3
2c~^^	4r	.
.	8r	.
.	8e-' 8g- 8b-X	.
=4	=4	=4
4ryy	8gn'L 8bn 8dd	.
.	8b-X' 8dd- 8ff	.
8ryy	8g' 8bn 8ddn	.
32ryy	8e-'J 8g- 8b-X	.
32gn'LLL	.	.
32g'	.	.
32cc'JJJ	.	.
=5	=5	=5
*^	*	*
2c~	4.ryy	4r	.
!	!Dynamic Expression: dim.	!Dynamic Expression: dim.	!
.	.	8d-' 8f 8a-	.
.	32ryy	8r	.
.	32g'/LLL	.	.
.	32g'/	.	.
.	32cc'/JJJ	.	.
=6	=6	=6	=6
2c~	4.ryy	4r	.
.	.	8B-' 8d- 8f	.
.	32ryy	8r	.
.	32g'/LLL	.	.
.	32g'/	.	.
.	32cc'/JJJ	.	.
=7	=7	=7	=7
[4c~	2ryy	4r	.
8c]	.	8d-'L 8f 8a-	sff
8r	.	8B-'J 8dn 8f	p
*clefF4	*	*	*
=8	=8	=8	=8
8G'L 8Bn 8d	4ryy	2r	>
8E-' 8G- 8B-X	.	.	.
8C' 8En 8Gn	8ryy	.	.
8AA-'J 8C- 8E-	32ryy	.	.
.	32GG'LLL	.	.
.	32GG'	.	.
.	32Cn'JJJ	.	.
*v	*v	*	*
=9	=9	=9
*8ba	*	*
8CCC	2r	]
8r	.	.
4r	.	.
=10	=10	=10
!Expression: sec	!	!
8CCC~^^	2r	sff
*X8ba	*	*
8r	.	.
4r	.	.
*	*clefF4	*
=11	=11	=11
!	!Expression: Spirituel et discret	!
*^	*	*
4FFF~	4rc	8r	pp
.	.	(<8qc#/	p>
.	.	[4.C~) [4.D [4.A [4.d	.
4r	8CC'L	.	]pp
.	8DD'J	.	.
*v	*v	*	*
=12	=12	=12
(<16FFLL	2C] 2D] 2A] 2d]	.
16GG)	.	.
16AA'	.	.
16GG'JJ	.	.
8FF'L	.	>
8DD'J	.	]]
=13	=13	=13
*^	*	*
4FFF~	4rc	8r	]
.	.	8qc#/	p>
.	.	[4.C~ [4.D [4.A [4.d	.
4r	8CC'L	.	]pp
.	8DD'J	.	.
*v	*v	*	*
=14	=14	=14
(<16FFLL	8C] 8D] 8A] 8d]	.
16GG)	.	.
16AA'JJ	8r	.
16C'	.	.
8D'L	4r	<
8F'J	.	[[
=15	=15	=15
*8ba	*	*
*	*^	*
16FFF' 16FF	8r	(<8.G~L	pp
16r	.	.	.
8r	8A' 8c 8d	.	.
.	.	16F'Jk)	.
16CCC' 16CC	8r	(<8.D~L	.
16r	.	.	.
8r	8A' 8c 8d	.	.
.	.	16F'Jk)	.
=16	=16	=16	=16
16FFF' 16FF	8r	(<8.G~L	.
16r	.	.	.
8r	8A' 8c 8d	.	.
.	.	16F'Jk)	.
16CCC' 16CC	8r	(<8.D~L	<
*X8ba	*	*	*
16r	.	.	.
8r	8A' 8c 8d	.	.
.	.	16A'Jk)	.
=17	=17	=17	=17
!Expression: m.g.	!	!	!
(>2A-	2Bn~^^ 2c 2d	4r	[sff
*	*clefG2	*	*
.	.	32qqg'/LLL	f<
.	.	32qqg'/	.
.	.	32qqcc'/JJJ	.
.	.	4c^	[
*	*v	*v	*
=18	=18	=18
!Expression: sec	!	!
8G) 8B- 8c 8d	2r	sff
8r	.	.
32qqG'/LLL	.	.
32qqG'/	.	.
!Expression: m.d.	!	!
32qqc'/JJJ	.	.
16C'LL	.	.
16GG'	.	>
16C'	.	.
16CC'JJ	.	]]
=19	=19	=19
*	*clefF4	*
*^	*	*
4FFF~	4rc	8r	]pp
.	.	8qc#/	p>
.	.	[4.C~ [4.D [4.A [4.d	.
4r	8CC'L	.	]pp
.	8DD'J	.	.
=20	=20	=20	=20
2r	(<16FFLL	2C] 2D] 2A] 2d]	]
.	16GG)	.	.
.	16AA'	.	.
.	16GG'JJ	.	.
.	8FF'L	.	>
.	8DD'J	.	.
=21	=21	=21	=21
4FFF~	4rc	8r	]
.	.	8qc#/	p>
.	.	[4.C~ [4.D [4.A [4.d	.
4r	8CC'L	.	]pp
.	8DD'J	.	.
*v	*v	*	*
=22	=22	=22
(<16FFLL	8C] 8D] 8A] 8d]	]<
16GG)	.	.
16AA'JJ	8r	.
16C'	.	.
8D'L	4r	.
8F'J	.	.
*	*clefG2	*
=23	=23	=23
*^	*	*
8DDD' 8DD	16G'LL	8r	[<
.	16A'	.	.
8rCC	(>16c	8f' 8a	.
.	16dJJ)	.	.
8GGG' 8GG	8eL	8r	.
8rCC	[8dJ	8f' 8g 8bn	.
=24	=24	=24	=24
8AAA' 8AA	8dL]	8r	[p
8rCC	(>16cL	8e' 8g	>
.	16BnJJ)	.	.
8BBBn' 8BBn	[4A	8r	]
8rCC	.	8Bn' 8d# 8f#	.
=25	=25	=25	=25
*	*	*clefF4	*
8AAA-' 8AA-	8AL]	8r	.
8rCC	(>16A-L	8c' 8e-	p<
.	16GJJ)	.	.
8DD' 8D	[4F#	8r	[
8rCC	.	8An' 8c 8d	.
=26	=26	=26	=26
8AAA-' 8AA-	8F#L]	8r	.
8rCC	(>16A-L	8c' 8e-	>
.	16GJJ)	.	.
8DD' 8D	16F#'LL	8r	.
.	16F#'	.	.
8rCC	(>16An	8c' 8d	.
.	16A-XJJ)	.	.
=27	=27	=27	=27
8AAA-' 8AA-	8rg	8r	]
8rCC	(>16A-LL	8c' 8e-	<
.	16GJJ)	.	.
8DD' 8D	[4F#	8r	[
8rCC	.	8An' 8c 8d	.
=28	=28	=28	=28
8AAA-' 8AA-	8F#L]	8r	.
8rCC	(>16A-L	8c' 8e-	>
.	16GJJ)	.	.
8DD' 8D	16F#'LL	8r	.
.	16F#'	.	.
8rCC	(>16An	8c' 8d	.
.	16A-JJ)	.	.
*v	*v	*	*
=29	=29	=29
!	!	!Dynamic Expression: molto cresc.
!Expression: molto staccato	!	!
16G'LL	2r	]
16F#'	.	.
16A-'	.	.
16G'JJ	.	.
16F#'LL	.	.
16Fn'	.	.
16G'	.	.
16F#'JJ	.	.
=30	=30	=30
16Fn'LL	2r	.
16E'	.	.
16F#'	.	.
16Fn'JJ	.	.
16E'LL	.	.
16E-'	.	.
16F'	.	.
16En'JJ	.	.
*	*clefG2	*
=31	=31	=31
*	*^	*
2C~^	4r	4ryy	f<
.	4bn~ 4ff# 4bbn	4A 4Bn 4d# 4f#	[
=32	=32	=32	=32
2C~^	4r	4r	f<
.	[4bn~ [4ff# [4bbn	(<[4A [4Bn [4d# [4f#	[
=33	=33	=33	=33
*^	*	*	*
[2C~^	8ryy	8bL] 8ff#] 8bb]	8AL] 8B] 8d#] 8f#]	p>
.	[4.B-X [4.c	8ddJ 8aa 8ddd	8fnJ 8a	.
.	.	[4cc [4gg [4ccc	[4e) [4g	]
=34	=34	=34	=34	=34
4C_	4B-_ 4c_	4cc_ 4gg_ 4ccc_	4e_ 4g_	.
16C]	16B-] 16c]	16cc] 16gg] 16ccc]	16e] 16g]	.
!Expression: m.d.	!	!	!	!
16BB-X'LL	16r	16r	16r	p>
16AA-'	8r	8r	8r	.
16GG-'JJ	.	.	.	.
*	*	*v	*v	*
=35	=35	=35	=35
*	*	*clefF4	*
4FFF~	4rc	8r	]pp
.	.	8qc#/	p>
.	.	[4.C~ [4.D [4.A [4.d	.
4r	8CC'L	.	]pp
.	8DD'J	.	.
*v	*v	*	*
=36	=36	=36
(<16FFLL	2C] 2D] 2A] 2d]	.
16GG)	.	.
16AA'	.	.
16GG'JJ	.	.
8FF'L	.	>
8DD'J	.	.
=37	=37	=37
*^	*	*
4FFF~	4rA	8r	]
.	.	8qc#/	p>
.	.	[4.C~ [4.D [4.A [4.d	.
4r	8CC'L	.	]pp
.	8DD'J	.	.
*v	*v	*	*
=38	=38	=38
(<16FFLL	8C] 8D] 8A] 8d]	<
16GG)	.	.
16AA'JJ	8r	.
16C'	.	.
8D'L	4r	.
8F'J	.	.
*	*clefG2	*
=39	=39	=39
*^	*	*
8EEE-' 8EE-	8re	(<8.gL	[p
8rCC	8G' 8d-	.	.
.	.	16fJk)	.
8AAA-' 8AA-	8re	(<8.dnL	.
8rCC	8G-' 8c	.	.
.	.	16fJk)	.
=40	=40	=40	=40
8EEE-' 8EE-	8re	(<8.gL	.
8rCC	8Gn' 8d-	.	.
.	.	16fJk)	.
8AAA-' 8AA-	8re	(<8.dL	.
8rCC	8G-' 8c	.	.
.	.	16b-Jk)	.
=41	=41	=41	=41
8FFF' 8FF	8re	(<8.gL	.
8rCC	8A' 8e-	.	.
.	.	16fJk)	.
8BBB-' 8BB-	8re	(<8.dL	.
8rCC	8A-' 8c	.	.
.	.	16fJk)	.
=42	=42	=42	=42
8AAAn' 8AAn	8re	(<8.gL	.
8rCC	8G' 8c#	.	.
.	.	16fJk)	.
8DD' 8D	8re	(<8.dL	.
8rCC	8F#' 8cn	.	.
.	.	16b-Jk)	.
=43	=43	=43	=43
2ryy	4r	4r	.
.	.	32qqcc'\LLL	f<
.	.	32qqcc'\	.
.	.	32qqff'\JJJ	.
*clefG2	*	*	*
.	8r	[4f~^	[
.	(<[8B-^ [8d- [8g	.	f<
=44	=44	=44	=44
4ryy	8B-L] 8d-] 8g]	4f]	.
.	8Bn'^J) 8dn 8g#	.	[
*clefF4	*	*	*
!	!Expression: m.d.	!	!
.	32qqc'\LLL	.	.
.	32qqc'\	.	.
.	32qqf'\JJJ	.	.
16F'	4ryy	4ryy	.
16FF'	.	.	.
16C'	.	.	.
16CC'	.	.	.
*v	*v	*	*
=45	=45	=45
8FFF' 8FF	4r	ff
8r	.	.
4r	8r;	.
.	(<8e- 8g- 8b-	p
=46||	=46||	=46||
*k[b-e-a-d-g-]	*k[b-e-a-d-g-]	*k[b-e-a-d-g-]
!Tempo Marking: Traine	!Tempo Marking: Traine	!Tempo Marking: Traine
2ryy	8gnL 8bn 8ddn	.
.	8b-X 8dd-X 8ff	>
.	8g 8bn 8ddn	.
.	8e-J) 8g-X 8b-X	.
=47	=47	=47
!	!Tempo Marking: Mouvt	!
*	*^	*
[2AAA-	(>8enL 8gn	2c~	]p
.	16e-X'L) 16g-X 16a-	.	.
.	16e-'JJ 16g- 16a-	.	.
.	16G-'LL 16A-	.	.
.	16g-' 16a-	.	.
.	16g-' 16a-	.	.
.	[16g-JJ [16a-	.	.
*	*v	*v	*
=48	=48	=48
*^	*	*
8AAA-]	8G-' 8A-	8g-] 8a-]	.
8r	8r	8r	.
4rAAA	4e-~	4ee-~ 4eee-	.
*v	*v	*	*
=49	=49	=49
*	*^	*
[2AAA-	(>8g-L 8an	2dn~	.
.	16f'L) 16a-X 16b-	.	.
.	16f'JJ 16a- 16b-	.	.
.	16A-'LL 16B-	.	.
.	16a-' 16b-	.	.
.	16a-' 16b-	.	.
.	[16a-JJ [16b-	.	.
*	*v	*v	*
=50	=50	=50
*^	*	*
8AAA-]	8A-' 8B-	8a-] 8b-]	.
8r	8r	8r	.
4rAAA	4f~	4ff~ 4fff	.
*v	*v	*	*
=51	=51	=51
2ryy	8r	.
.	16cc-^LL 16ee- 16gg-	<
.	16cc-' 16ee- 16gg-	.
.	16a-^ 16ccn 16ee-	.
.	16a-' 16cc 16ee-	.
.	16cc^ 16ee- 16gg-	.
.	16cc'JJ 16ee- 16gg-	.
=52	=52	=52
2ryy	8dd-'L 8ff 8aa-	[
.	8cc-' 8ee- 8gg-	>
.	8gn' 8bn 8ddn	.
.	8b-X'J 8dd-X 8ff	.
=53	=53	=53
2ryy	8f'L 8an 8cc	]p
.	8e-' 8g-X 8b-	>
.	8B-' 8dn 8f	.
.	8d-X'J 8f- 8a-X	.
=54	=54	=54
*^	*	*
4r	4ryy	8Gn'L 8Bn 8dn	]pp
.	.	8B-X'J 8d-X 8f	.
4AAA-~	8rc	4ryy	.
!	!Expression: m.d.	!	!
.	8Dn'	.	.
=55	=55	=55	=55
!	!	!Expression: m.g.	!
4r	4ryy	8Gn'L 8Bn 8dn	.
.	.	8B-X'J 8d-X 8f	.
4AAA-~	8rc	4ryy	.
!	!Expression: m.d.	!	!
.	8Dn'	.	pp
=56	=56	=56	=56
4AAA-~	8rc	2r	.
.	8Dn'	.	.
4AAA-~	8rc	.	.
.	8D'	.	.
=57	=57	=57	=57
4AAA-~	8rc	4r	.
.	8Dn	.	.
4AAA-^^	8rc	8r	sff
!Tempo Marking: Traine	!Tempo Marking: Traine	!Tempo Marking: Traine	!Tempo Marking: Traine
.	(<8f	(<8g- 8b-	ff<
=58	=58	=58	=58
2ryy	8enL	8gnL 8bn 8ddn	.
.	8e-X	8b-X 8dd-X 8ff	.
.	8dn	8g 8bn 8ddn	.
.	8d-XJ)	8e-XJ) 8g-X 8b-X	[
*v	*v	*	*
=59	=59	=59
!Tempo Marking: Mouvt	!Tempo Marking: Mouvt	!Tempo Marking: Mouvt
!	!	!Dynamic Expression: subito
*	*^	*
[2AAA-	(>8enL 8gn	2c~	p
.	16e-X'L) 16g-X 16a-	.	.
.	16e-'JJ 16g- 16a-	.	.
.	16G-'LL 16A-	.	.
.	16g-' 16a-	.	.
.	16g-' 16a-	.	.
.	[16g-JJ [16a-	.	.
*	*v	*v	*
=60	=60	=60
*^	*	*
8AAA-]	8G-' 8A-	8g-] 8a-]	.
8r	8r	8r	.
4rCC	4e-~	4ee-~ 4eee-	.
*v	*v	*	*
=61	=61	=61
*	*^	*
[2AAA-	(>8g-L 8an	2dn~	.
.	16f'L) 16a-X 16b-	.	.
.	16f'JJ 16a- 16b-	.	.
.	16A-'LL 16B-	.	.
.	16a-' 16b-	.	.
.	16a-' 16b-	.	.
.	[16a-JJ [16b-	.	.
*	*v	*v	*
=62	=62	=62
*^	*	*
8AAA-]	8A-' 8B-	8a-] 8b-]	.
8r	8r	8r	.
4rCC	4f~	4ff~ 4fff	.
*v	*v	*	*
=63	=63	=63
2r	8r	.
.	16cc-^LL 16ee- 16gg-	f
.	16cc-' 16ee- 16gg-	.
.	16a-^ 16ccn 16ee-	.
.	16a-' 16cc 16ee-	.
.	16cc^ 16ee- 16gg-	<
.	16cc'JJ 16ee- 16gg-	.
=64	=64	=64
2r	8dd-'L 8ff 8aa-	.
.	8cc-' 8ee- 8gg-	.
.	8gn' 8bn 8ddn	.
.	8b-X'J 8dd-X 8ff	.
=65	=65	=65
*^	*^	*
4rDDD	2BB-X 2Cn	8r	2gg- 2aan	[f<
.	.	[8ff-X~^^ [8fff-X	.	.
(>16AA-XLL	.	(>16ff-LL] 16fff-]	.	.
16GG-J	.	16ee-J 16eee-	.	.
8FFJ)	.	8dd-J) 8ddd-	.	.
=66	=66	=66	=66	=66
4rDDD	2BB-X 2Cn	8r	2gg- 2aan	[f<
.	.	[8ffn~^^ [8fffn	.	.
(>16AAnLL	.	(>16ffLL] 16fff]	.	.
16GG-J	.	16ee-J 16eee-	.	.
8FFJ)	.	8dd-J) 8ddd-	.	.
=67	=67	=67	=67	=67
*	*	*	*^	*
2EEE- 2EE-	8r	8r	8ryy	8r	[ff<
.	4.Gn 4.B- 4.d-	[8ff~^^ [8fff	4.bb- 4.ddd-	[8f/	.
.	.	(>16ffLL] 16fff]	.	(>16f/LL]	.
.	.	16ee-J 16eee-	.	16e-/	.
.	.	8dd-J) 8ddd-	.	16d-/JJ)	.
.	.	.	.	16r	[
*v	*v	*	*	*	*
*	*v	*v	*v	*
=68	=68	=68
2ryy	4r	.
.	[4f~	f
=69	=69	=69
2ryy	6f]	>
.	6en~	.
.	6dn~	]
*	*clefF4	*
=70||	=70||	=70||
*k[b-]	*k[b-]	*k[b-]
*^	*	*
4FFF~	4r	8r	pp
.	.	8qc#/	p>
.	.	[4.C~ [4.D [4.A [4.d	.
4r	8CC'L	.	]pp
.	8DD'J	.	.
*v	*v	*	*
=71	=71	=71
(<16FFLL	2C] 2D] 2A] 2d]	.
16GG)	.	.
16AA'	.	.
16GG'JJ	.	.
8FF'L	.	>
8DD'J	.	.
=72	=72	=72
*^	*	*
4FFF~	4r	8r	]
.	.	8qc#/	.
.	.	[4.C [4.D [4.A [4.d	.
4r	8CC'L	.	p
.	8DD'J	.	.
*v	*v	*	*
=73	=73	=73
(<16FFLL	8C] 8D] 8A] 8d]	.
16GG)	.	.
16AA'JJ	8r	.
16C'	.	.
8D'L	4r	.
8F'J	.	.
=74	=74	=74
*8ba	*	*
*	*^	*
16FFF' 16FF	8r	(<8.G~L	.
16r	.	.	.
8r	8A' 8c 8d	.	.
.	.	16F'Jk)	.
16CCC' 16CC	8r	(<8.D~L	.
16r	.	.	.
8r	8A' 8c 8d	.	.
.	.	16F'Jk)	.
=75	=75	=75	=75
16FFF' 16FF	8r	(<8.G~L	.
16r	.	.	.
8r	8A' 8c 8d	.	.
.	.	16F'Jk)	.
16CCC' 16CC	8r	(<8.D~L	.
*X8ba	*	*	*
16r	.	.	.
8r	8A' 8c 8d	.	.
.	.	16A'Jk)	.
=76	=76	=76	=76
!Expression: m.g.	!	!	!
(>2A-	2Bn~^^ 2c 2d	4r	sff
*	*clefG2	*	*
.	.	32qqg'/LLL	f<
.	.	32qqg'/	.
.	.	32qqcc'/JJJ	.
.	.	4c	[
*	*v	*v	*
=77	=77	=77
!Expression: sec	!	!
*^	*	*
8G) 8B- 8c 8d	4ryy	2r	sff
8r	.	.	.
!	!Expression: m.d.	!	!
.	32qqG'/LLL	.	.
.	32qqG'/	.	.
.	32qqc'/JJJ	.	.
4ryy	16C'	.	.
.	16GG'	.	.
.	16C'	.	.
.	16CC'	.	.
*	*	*clefF4	*
=78	=78	=78	=78
4FFF~	4r	8r	pp
.	.	8qc#/	p>
.	.	[4.C~ [4.D [4.A [4.d	.
4r	8CC'L	.	]pp
.	8DD'J	.	.
*v	*v	*	*
=79	=79	=79
(<16FFLL	2C] 2D] 2A] 2d]	.
16GG)	.	.
16AA'	.	.
16GG'JJ	.	.
8FF'L	.	.
8DD'J	.	.
=80	=80	=80
*^	*	*
4FFF~	4r	8r	.
.	.	8qc#/	p>
.	.	[4.C~ [4.D [4.A [4.d	.
4r	8CC'L	.	]
.	8DD'J	.	.
*v	*v	*	*
=81	=81	=81
(<16FFLL	8C] 8D] 8A] 8d]	<
16GG)	.	.
16AA'JJ	8r	.
16C'	.	.
8D'L	4r	.
8F'J	.	.
*	*clefG2	*
=82	=82	=82
*^	*	*
16G'LL	8DDD' 8DD	8r	[<
16A'	.	.	.
(>16c	8r	8f' 8a	.
16dJJ)	.	.	.
8e'L	8GGG' 8GG	8r	.
[8dJ	8r	8f' 8g 8bn	.
=83	=83	=83	=83
8dL]	8AAA' 8AA	8r	[p>
(>16cL	8r	8e' 8g	.
16BnJJ)	.	.	.
[4A	8BBBn' 8BBn	8r	]
.	8r	8Bn' 8d# 8f#	.
*	*	*clefF4	*
=84	=84	=84	=84
8AL]	8AAA-' 8AA-	8r	.
(>16A-L	8r	8c' 8e-	p<
16GJJ)	.	.	.
[4F#	8DD' 8D	8r	[
.	8r	8An' 8c 8d	.
=85	=85	=85	=85
8F#L]	8AAA-' 8AA-	8r	.
(>16A-L	8r	8c' 8e-	>
16GJJ)	.	.	.
16F#'LL	8DD' 8D	8r	.
16F#'	.	.	.
(>16An	8r	8c' 8d	.
16A-XJJ)	.	.	]
=86	=86	=86	=86
8r	8AAA-' 8AA-	8r	.
(>16A-LL	8r	8c' 8e-	<
16GJJ)	.	.	.
[4F#	8DD' 8D	8r	[
.	8r	8A' 8c 8d	.
=87	=87	=87	=87
8F#L]	8AAA-' 8AA-	8r	.
(>16A-L	8r	8c' 8e-	>
16GJJ)	.	.	.
16F#'LL	8DD' 8D	8r	.
16F#'	.	.	.
(>16An	8r	8c' 8d	.
16A-JJ)	.	.	.
*v	*v	*	*
*	*clefG2	*
=88	=88	=88
!	!	!Dynamic Expression: molto cresc.
16G'LL	2r	]
16F#'	.	.
16A-'	.	.
16G'JJ	.	.
16F#'LL	.	.
16Fn'	.	.
16G'	.	.
16F#'JJ	.	.
=89	=89	=89
16Fn'LL	2r	.
16E'	.	.
16F#'	.	.
16Fn'JJ	.	.
16E'LL	.	.
16E-'	.	.
16F'	.	.
16En'JJ	.	.
=90	=90	=90
*	*^	*
2C~^	4r	4r	f<
.	4bn~ 4ff# 4bbn	4A 4Bn 4d# 4f#	[
=91	=91	=91	=91
2C~^	4r	4r	f<
.	[4bn~ [4ff# [4bbn	[4A [4Bn [4d# [4f#	[
=92	=92	=92	=92
*^	*	*	*
[2C~^	8ryy	8bL] 8ff#] 8bb]	8AL] 8B] 8d#] 8f#]	p>
.	[4.B-X [4.c	8ddJ 8aa 8ddd	8fnJ 8a	.
.	.	[4cc [4gg [4ccc	[4e [4g	]
=93	=93	=93	=93	=93
4C_	4B-_ 4c_	4cc_ 4gg_ 4ccc_	4e_ 4g_	.
8C]	16B-] 16c]	16cc] 16gg] 16ccc]	16e] 16g]	.
.	16r	16r	16r	.
!	!Expression: m.d.	!	!	!
8r	16BB-'LL	8r	8r	p
.	16AA-'JJ	.	.	.
*	*	*v	*v	*
*	*	*clefF4	*
=94	=94	=94	=94
!Tempo Marking: Tres retenu	!Tempo Marking: Tres retenu	!Tempo Marking: Tres retenu	!Tempo Marking: Tres retenu
2GGG-	4r	8r	pp
.	.	8qdn/	.
.	.	[4.D-~ [4.E- [4.B- [4.e-	p>
.	8DD-X'L	.	pp
.	8EE-X'J	.	.
*v	*v	*	*
=95	=95	=95
(<16GG-LL	2D-] 2E-] 2B-] 2e-]	]<
16AA-)	.	.
16BB-'	.	[>
16AA-'JJ	.	.
8GG-'L	.	]
[8EE-'J	.	.
=96	=96	=96
8EE-]	2r	.
8r	.	.
4r	.	.
=97	=97	=97
*^	*	*
2DDDn~	2FF#~ 2AAn	2r	p
=98	=98	=98	=98
2GGG-	4r	8r	pp
.	.	8qdn/	p
.	.	4.D-~ 4.E- 4.B- 4.e-	.
!	!	!	!Dynamic Expression: cresc.
.	8DD-'L	.	.
.	8EE-'J	.	.
*v	*v	*	*
=99	=99	=99
!Tempo Marking: Animez	!Tempo Marking: Animez	!Tempo Marking: Animez
(<16GG-LL	2r	.
16AA-)	.	.
16BB-'JJ	.	.
16D-'	.	.
8E-'L	.	.
8G-'J	.	.
*	*clefG2	*
=100	=100	=100
8A-'L	4r	.
8B-'J	.	.
8d-L	8r	.
8fJ	8g- 8b-	.
=101	=101	=101
*	*^	*
2r	8gnL 8bn 8ddn	8eL	f<
.	8b- 8dd- 8ff	8e-	.
.	8g 8bn 8ddn	8d	.
.	8e-J 8g- 8b-	8d-J	.
=102	=102	=102	=102
2r	8a-L 8cc 8ee-	8fL	[f<
.	8bn 8dd 8ff#	8e	.
.	8a- 8cc 8ee-	8e-	.
.	8enJ 8g 8bn	8dJ	.
=103	=103	=103	=103
*	*	*^	*
4.BBB- 4.BB-	8r	8r	4r	[ff
.	4.a~^^ 4.ff 4.aa	4.G 4.d- 4.f	.	.
!	!	!	!Expression: m.d.	!
.	.	.	32qqcc'/LLL	<
.	.	.	32qqcc'/	.
.	.	.	32qqff'/JJJ	.
!	!	!	!Expression: m.g.	!
.	.	.	8f'^/	[
8r	.	.	8r	.
=104	=104	=104	=104	=104
4.CC 4.C	8r	8r	4r	ff
.	4.a~^^ 4.ee 4.aa	4.B- 4.dn 4.e	.	.
.	.	.	32qqg'/LLL	<
.	.	.	32qqg'/	.
.	.	.	32qqcc'/JJJ	.
.	.	.	8c'^/	[
8r	.	.	8r	.
=105	=105	=105	=105	=105
4.BBB- 4.BB-	8r	8r	4r	ff
.	4.a~^^ 4.ff 4.aa	4.G 4.d- 4.f	.	.
.	.	.	32qqcc'/LLL	<
.	.	.	32qqcc'/	.
.	.	.	32qqff'/JJJ	.
.	.	.	8f'^/	[
8r	.	.	8r	.
=106	=106	=106	=106	=106
4.CC 4.C	8r	8r	4r	ff
.	4.a~^^ 4.ee 4.aa	4.B- 4.dn 4.e	.	.
.	.	.	32qqg'/LLL	.
.	.	.	32qqg'/	.
.	.	.	32qqcc'/JJJ	.
.	.	.	8c'^/	.
8r	.	.	8r	.
*	*v	*v	*v	*
=107	=107	=107
4ryy	2r	.
32qqc/LLL	.	ff
32qqc/	.	.
32qqf/JJJ	.	.
16F'LL	.	<
16FF'	.	.
16C'	.	.
16CC'JJ	.	.
=108	=108	=108
8FFF^ 8FF	2r	[
8r	.	.
4r	.	.
*	*clefF4	*
=109	=109	=109
!	!Expression: sec	!
8FFF'^^ 8FF	8F'^^	sff
8r	8r	.
4r	4r	.
==	==	==
*-	*-	*-
!!!system-decoration: {(s1,s2)}
!!!RDF**kern: > = above
!!!RDF**kern: < = below
